src/assets/icons/car.svg

<svg width="19" height="19" viewBox="0 0 19 19" fill="none" xmlns="http://www.w3.org/2000/svg">
<path d="M18.2733 7.6122L17.8592 7.17374L16.4058 3.25601C16.1581 2.59425 15.5248 2.15579 14.8184 2.15173H4.43739C3.73098 2.15173 3.09765 2.59425 2.85 3.25601L1.41688 7.12502L0.820086 7.67716C0.300427 8.11968 0 8.76925 0 9.45131V15.1594C0.00405983 16.0932 0.763248 16.8483 1.69701 16.8483H2.7688C3.70256 16.8483 4.46175 16.0932 4.46581 15.1594V14.3312H14.5342V15.1594C14.5382 16.0932 15.2974 16.8483 16.2312 16.8483H17.303C18.2368 16.8483 18.9959 16.0932 19 15.1594V9.30109C18.9959 8.6637 18.7361 8.05472 18.2733 7.6122ZM3.61325 3.53208C3.74316 3.18699 4.07201 2.9637 4.43739 2.9637H14.8224C15.1878 2.9637 15.5167 3.19105 15.6466 3.53208L16.9132 6.94233H15.9673C15.744 5.4199 14.3271 4.3684 12.8047 4.59575C11.5908 4.77438 10.6368 5.72844 10.4581 6.94233H2.34658L3.61325 3.53208ZM15.1391 6.94233H11.2782C11.5015 5.8746 12.5489 5.19254 13.6167 5.41584C14.3799 5.57823 14.9767 6.17502 15.1391 6.94233ZM3.65385 15.1594C3.64979 15.6466 3.25598 16.0363 2.7688 16.0363H1.69701C1.20983 16.0363 0.816026 15.6466 0.811966 15.1594V14.0957C1.05556 14.2541 1.37628 14.3312 1.69701 14.3312H3.65385V15.1594ZM18.188 15.1594C18.184 15.6466 17.7902 16.0363 17.303 16.0363H16.2312C15.744 16.0363 15.3502 15.6425 15.3462 15.1594V14.3312H17.303C17.6237 14.3312 17.9444 14.2541 18.188 14.0957V15.1594ZM17.303 13.5193H1.69701C1.21389 13.5233 0.816026 13.1376 0.811966 12.6505V9.45131C0.811966 9.00472 1.0109 8.57844 1.35192 8.29019C1.35598 8.28613 1.3641 8.27802 1.36816 8.27396L1.9203 7.7543H17.2949L17.6846 8.17246C17.6887 8.18058 17.7009 8.18464 17.7049 8.19276C18.0094 8.48101 18.184 8.88293 18.184 9.30109V12.6505H18.188C18.184 13.1336 17.7861 13.5233 17.303 13.5193Z" fill="#696969"/>
<path d="M5.35897 9.37817H2.31409C2.0908 9.37817 1.90811 9.56087 1.90811 9.78416V11.8953C1.90811 12.1186 2.0908 12.3013 2.31409 12.3013H5.35897C5.58226 12.3013 5.76495 12.1186 5.76495 11.8953V9.78416C5.76495 9.56087 5.58226 9.37817 5.35897 9.37817ZM4.95298 11.4893H2.72008V10.1901H4.95298V11.4893Z" fill="#696969"/>
<path d="M16.6859 9.37817H13.6411C13.4178 9.37817 13.2351 9.56087 13.2351 9.78416V11.8953C13.2351 12.1186 13.4178 12.3013 13.6411 12.3013H16.6859C16.9092 12.3013 17.0919 12.1186 17.0919 11.8953V9.78416C17.0919 9.56087 16.9092 9.37817 16.6859 9.37817ZM16.2799 11.4893H14.047V10.1901H16.2799V11.4893Z" fill="#696969"/>
<path d="M11.4609 11.0834H7.5391C7.31581 11.0834 7.13312 11.2661 7.13312 11.4894C7.13312 11.7126 7.31581 11.8953 7.5391 11.8953H11.4609C11.6842 11.8953 11.8669 11.7126 11.8669 11.4894C11.8669 11.2661 11.6842 11.0834 11.4609 11.0834Z" fill="#696969"/>
<path d="M11.4609 9.82483H7.5391C7.31581 9.82483 7.13312 10.0075 7.13312 10.2308C7.13312 10.4541 7.31581 10.6368 7.5391 10.6368H11.4609C11.6842 10.6368 11.8669 10.4541 11.8669 10.2308C11.8669 10.0075 11.6842 9.82483 11.4609 9.82483Z" fill="#696969"/>
</svg>

<svg xmlns="http://www.w3.org/2000/svg" width="19" height="19" fill="none"><path fill="#696969" d="m18.273 7.612-.414-.438-1.453-3.918a1.705 1.705 0 0 0-1.588-1.104H4.438c-.707 0-1.34.442-1.588 1.104L1.417 7.125l-.597.552A2.333 2.333 0 0 0 0 9.451v5.708a1.697 1.697 0 0 0 1.697 1.69h1.072c.934 0 1.693-.756 1.697-1.69v-.828h10.068v.828a1.697 1.697 0 0 0 1.697 1.69h1.072c.934 0 1.693-.756 1.697-1.69V9.301a2.354 2.354 0 0 0-.727-1.689Zm-14.66-4.08a.878.878 0 0 1 .824-.568h10.385c.366 0 .695.227.825.568l1.266 3.41h-.946a2.78 2.78 0 0 0-3.162-2.346 2.782 2.782 0 0 0-2.347 2.346H2.347l1.266-3.41Zm11.526 3.41h-3.86a1.974 1.974 0 0 1 2.338-1.526c.763.162 1.36.759 1.522 1.526ZM3.654 15.16a.883.883 0 0 1-.885.877H1.697a.883.883 0 0 1-.885-.877v-1.063c.244.158.564.235.885.235h1.957v.828Zm14.534 0a.883.883 0 0 1-.885.877h-1.072a.885.885 0 0 1-.885-.877v-.828h1.957c.32 0 .641-.077.885-.235v1.063Zm-.885-1.64H1.697a.876.876 0 0 1-.885-.869V9.451c0-.446.199-.873.54-1.16l.016-.017.552-.52h15.375l.39.418c.004.009.016.013.02.02.304.289.479.69.479 1.11v3.348h.004a.878.878 0 0 1-.885.87Z"/><path fill="#696969" d="M5.359 9.378H2.314a.407.407 0 0 0-.406.406v2.111c0 .224.183.406.406.406H5.36a.407.407 0 0 0 .406-.406v-2.11a.407.407 0 0 0-.406-.407Zm-.406 2.111H2.72V10.19h2.233v1.3ZM16.686 9.378H13.64a.407.407 0 0 0-.406.406v2.111c0 .224.183.406.406.406h3.045a.407.407 0 0 0 .406-.406v-2.11a.407.407 0 0 0-.406-.407Zm-.406 2.111h-2.233V10.19h2.233v1.3ZM11.46 11.083H7.54a.407.407 0 0 0-.407.406c0 .224.183.406.406.406h3.922a.407.407 0 0 0 .406-.406.407.407 0 0 0-.406-.406ZM11.46 9.825H7.54a.407.407 0 0 0-.407.406c0 .223.183.406.406.406h3.922a.407.407 0 0 0 .406-.406.407.407 0 0 0-.406-.406Z"/></svg>
